X: 5
T: The Plains Of Boyle
R: hornpipe
M: 4/4
L: 1/8
K: Dmaj
AG | FDDF ADD.A | (3.A.c.A GB ADDd | (3.g.f.e  df  edce | dcAB (3.c.B.A GB|
ADDF ADD.A |(3.A.c.A GB ADDd | (3.g.f.e  dc (3.A.c.A GA (3.F.G.A D2 D2 :|
fg| afdf (3gag fe| dfed BAF.A | (3.A.c.A f.A (3.A.c.A/ g.A | (3.A.c.A fA BAdf |
afdf ~g2 fe | dfed BAFG | (3.A.c.A AF GBAG | (3.F.G.A D2 D2 :|


Tune 652	Setting 13685

